images/blog/reddit.svg

<svg height="44" viewBox="0 0 44 44" width="44" xmlns="http://www.w3.org/2000/svg"><g fill="none" fill-rule="evenodd"><path d="m2 0h40c1.1045695 0 2 .8954305 2 2v40c0 1.1045695-.8954305 2-2 2h-40c-1.1045695 0-2-.8954305-2-2v-40c0-1.1045695.8954305-2 2-2z" fill="#ff4500"/><path d="m33.9995888 21.6587667c-.0537464-1.4282011-1.2719986-2.5434321-2.7276308-2.4949438-.6449571.0220401-1.258562.2821138-1.7243644.7185085-2.0513217-1.3753047-4.4609529-2.1290774-6.9377671-2.1819738l1.1689846-5.5320749 3.8563057.797853c.1074929.9741742.9943088 1.6794586 1.9841387 1.573666.98983-.1057927 1.7064489-.9785822 1.5989561-1.9527564-.1074929-.9741741-.9943088-1.6794586-1.9841387-1.5736659-.5688163.0573043-1.0794073.3834984-1.361576.8683815l-4.4161643-.8683815c-.3000842-.0661204-.6001683.1190167-.6673514.4187626v.0088161l-1.3302239 6.1536069c-2.5081663.0396722-4.9491496.797853-7.0273445 2.1819738-1.0570129-.9785822-2.723152-.9300939-3.7174608.1146087-.99430874 1.0402946-.94504119 2.6800809.1164506 3.6586631.206028.1895452.443408.3526422.7076612.467251-.0179154.2600736-.0179154.5201472 0 .7802209 0 3.9716331 4.7028118 7.2027175 10.5029464 7.2027175s10.5029464-3.2266764 10.5029464-7.2027175c.0179155-.2600737.0179155-.5201473 0-.7802209.9047314-.4452109 1.4735477-1.3620807 1.4556322-2.3582949zm-18.0184875 1.7764352c0-.9785822.8106752-1.7764352 1.8049839-1.7764352.9943088 0 1.804984.797853 1.804984 1.7764352s-.8106752 1.7764352-1.804984 1.7764352c-.9987876-.0088161-1.8049839-.797853-1.8049839-1.7764352zm10.4671154 4.8752788c-1.2809563.947726-2.8485603 1.432609-4.4519952 1.3664886-1.6034349.0661204-3.1710388-.4187626-4.4519952-1.3664886-.170197-.2027693-.1388449-.5069232.0671831-.6744283.1791547-.1454649.4344502-.1454649.6180838 0 1.0838862.780221 2.4051523 1.1769435 3.7488129 1.1152311 1.3436605.0705284 2.6694055-.308562 3.7667283-1.0799669.1970702-.1895452.5195487-.1851371.71214.0088161.1925914.1939532.1881125.5113312-.0089577.7008764zm-.3224785-3.0371312c-.9943088 0-1.804984-.797853-1.804984-1.7764352s.8106752-1.7764353 1.804984-1.7764353 1.804984.7978531 1.804984 1.7764353c.0403098.9785822-.7345345 1.8028834-1.7288433 1.8425556-.031352 0-.0582252 0-.0895773 0z" fill="#fff" fill-rule="nonzero"/></g></svg>

<?xml version="1.0" encoding="UTF-8"?>
<svg width="44px" height="44px" viewBox="0 0 44 44" version="1.1" xmlns="http://www.w3.org/2000/svg" xmlns:xlink="http://www.w3.org/1999/xlink">
    <!-- Generator: Sketch 49.3 (51167) - http://www.bohemiancoding.com/sketch -->
    <title>reddit</title>
    <desc>Created with Sketch.</desc>
    <defs></defs>
    <g id="✒️-blog" stroke="none" stroke-width="1" fill="none" fill-rule="evenodd">
        <g id="article" transform="translate(-652.000000, -3472.000000)">
            <g id="newsletter" transform="translate(448.000000, 3420.000000)">
                <g id="info" transform="translate(24.000000, 20.000000)">
                    <g id="reddit" transform="translate(180.000000, 32.000000)">
                        <path d="M2,0 L42,0 C43.1045695,-2.02906125e-16 44,0.8954305 44,2 L44,42 C44,43.1045695 43.1045695,44 42,44 L2,44 C0.8954305,44 1.3527075e-16,43.1045695 0,42 L0,2 C-1.3527075e-16,0.8954305 0.8954305,2.02906125e-16 2,0 Z" id="input-bg" fill="#FF4500"></path>
                        <path d="M33.9995888,21.6587667 C33.9458424,20.2305656 32.7275902,19.1153346 31.271958,19.1638229 C30.6270009,19.185863 30.013396,19.4459367 29.5475936,19.8823314 C27.4962719,18.5070267 25.0866407,17.753254 22.6098265,17.7003576 L23.7788111,12.1682827 L27.6351168,12.9661357 C27.7426097,13.9403099 28.6294256,14.6455943 29.6192555,14.5398017 C30.6090855,14.434009 31.3257044,13.5612195 31.2182116,12.5870453 C31.1107187,11.6128712 30.2239028,10.9075867 29.2340729,11.0133794 C28.6652566,11.0706837 28.1546656,11.3968778 27.8724969,11.8817609 L23.4563326,11.0133794 C23.1562484,10.947259 22.8561643,11.1323961 22.7889812,11.432142 C22.7889812,11.4365501 22.7889812,11.4365501 22.7889812,11.4409581 L21.4587573,17.594565 C18.950591,17.6342372 16.5096077,18.392418 14.4314128,19.7765388 C13.3743999,18.7979566 11.7082608,18.8464449 10.713952,19.8911475 C9.71964326,20.9314421 9.76891081,22.5712284 10.8304026,23.5498106 C11.0364306,23.7393558 11.2738106,23.9024528 11.5380638,24.0170616 C11.5201484,24.2771352 11.5201484,24.5372088 11.5380638,24.7972825 C11.5380638,28.7689156 16.2408756,32 22.0410102,32 C27.8411448,32 32.5439566,28.7733236 32.5439566,24.7972825 C32.5618721,24.5372088 32.5618721,24.2771352 32.5439566,24.0170616 C33.448688,23.5718507 34.0175043,22.6549809 33.9995888,21.6587667 Z M15.9811013,23.4352019 C15.9811013,22.4566197 16.7917765,21.6587667 17.7860852,21.6587667 C18.780394,21.6587667 19.5910692,22.4566197 19.5910692,23.4352019 C19.5910692,24.4137841 18.780394,25.2116371 17.7860852,25.2116371 C16.7872976,25.202821 15.9811013,24.4137841 15.9811013,23.4352019 Z M26.4482167,28.3104807 C25.1672604,29.2582067 23.5996564,29.7430897 21.9962215,29.6769693 C20.3927866,29.7430897 18.8251827,29.2582067 17.5442263,28.3104807 C17.3740293,28.1077114 17.4053814,27.8035575 17.6114094,27.6360524 C17.7905641,27.4905875 18.0458596,27.4905875 18.2294932,27.6360524 C19.3133794,28.4162734 20.6346455,28.8129959 21.9783061,28.7512835 C23.3219666,28.8218119 24.6477116,28.4427215 25.7450344,27.6713166 C25.9421046,27.4817714 26.2645831,27.4861795 26.4571744,27.6801327 C26.6497658,27.8740859 26.6452869,28.1914639 26.4482167,28.3810091 L26.4482167,28.3104807 Z M26.1257382,25.2733495 C25.1314294,25.2733495 24.3207542,24.4754965 24.3207542,23.4969143 C24.3207542,22.5183321 25.1314294,21.720479 26.1257382,21.720479 C27.120047,21.720479 27.9307222,22.5183321 27.9307222,23.4969143 C27.971032,24.4754965 27.1961877,25.2997977 26.2018789,25.3394699 C26.1705269,25.3394699 26.1436537,25.3394699 26.1123016,25.3394699 L26.1257382,25.2733495 Z" id="Shape" fill="#FFFFFF" fill-rule="nonzero"></path>
                        <g transform="translate(10.000000, 11.000000)"></g>
                    </g>
                </g>
            </g>
        </g>
    </g>
</svg>
